X:1
T:Polska efter Mattias Rosin
R:Polska
S:Efter Mattias Rosin
O:Junsele, Ångermanland
N:Upptecknad av [[Personer/Sören Johansson]] och spelad av Eva Söderström 
Z:Eva Zwahlen 2010-05-02
M:3/4
L:1/16
K:G
|:G,3B, D3G B3G |G3E C4 E4 | D3F A3F A3F | D3G B3G B3G |G,3B, D3G B3G |G3E C4 E4 | D3F A3F A3F | (3D2E2F2 G8:: D3G B4 B4 |A3c c4 c4 |c3A (3F2A2F2 (3D2E2F2|G3D (3B,2D2B,2 G,4|D3G B4 B4 |A3c c4 c4 |c3A (3F2A2F2 (3D2E2F2|G4 G4 z4:|

